!! 00000] TT[WS
!!!OTL: Weigong puge zhai
!!!ARE: Asia, China, Shanxi Xixian
!! Ethnic Group: Han
!! WII, 216 (2)
!!!SCT: J0722
!!!YEM: Copyright 1995, estate of Helmut Schaffrath.
**kern
*ICvox
*Ivox
*M2/4
*k[b-]
*F:
{8cc
16dd
16ff
8cc
16b-
16a
=1
8g
16a
16cc
4g
=2
8f
16g
16a
8f
16e
16d
=3
8c
16d
16f
4c}
=4
{8c
8c
8cc
16b-
16a
=5
8g
8g
8g
8cc
=6
8b-
16b-
16g
16f
16g
16f
16d
=7
8c
16d
16f
4c}
==
!!!AGN: Xiaodiao. XÅshi, Sushuo
!!!ONB: ESAC (Essen Associative Code) Database: CHINA
!!!AMT: simple duple
!!!AIN: vox
!!!EED: Helmut Schaffrath
!!!EEV: 1.0
*-
